X:1
T:Title
C:Composer
L:1/4
M:3/4
I:linebreak $
K:C
V:1 treble nm="Piano" snm="Pno."
V:1
 E2 G | d3 | c2 G | F3 | E2 E | E F G | A3 | G3 | E2 G | d3 | c2 G | F3 | E2 G | G A B | c3 | c3 |] %16
